SVG_Azure_All/Recovery Services.svg

<?xml version="1.0" encoding="UTF-8" standalone="no"?>
<!-- Generated by Microsoft Visio, SVG Export Recovery Services.svg Page-1 -->

<svg
   xmlns:dc="http://purl.org/dc/elements/1.1/"
   xmlns:cc="http://creativecommons.org/ns#"
   xmlns:rdf="http://www.w3.org/1999/02/22-rdf-syntax-ns#"
   xmlns:svg="http://www.w3.org/2000/svg"
   xmlns="http://www.w3.org/2000/svg"
   xmlns:sodipodi="http://sodipodi.sourceforge.net/DTD/sodipodi-0.dtd"
   xmlns:inkscape="http://www.inkscape.org/namespaces/inkscape"
   width="0.78741705in"
   height="0.66917133in"
   viewBox="0 0 56.694096 48.180406"
   xml:space="preserve"
   class="st3"
   version="1.1"
   id="svg49"
   sodipodi:docname="Recovery Services.svg"
   style="font-size:12px;overflow:visible;color-interpolation-filters:sRGB;fill:none;fill-rule:evenodd;stroke-linecap:square;stroke-miterlimit:3"
   inkscape:version="0.92.5 (2060ec1f9f, 2020-04-08)"><metadata
   id="metadata53"><rdf:RDF><cc:Work
       rdf:about=""><dc:format>image/svg+xml</dc:format><dc:type
         rdf:resource="http://purl.org/dc/dcmitype/StillImage" /></cc:Work></rdf:RDF></metadata><sodipodi:namedview
   pagecolor="#ffffff"
   bordercolor="#666666"
   borderopacity="1"
   objecttolerance="10"
   gridtolerance="10"
   guidetolerance="10"
   inkscape:pageopacity="0"
   inkscape:pageshadow="2"
   inkscape:window-width="640"
   inkscape:window-height="480"
   id="namedview51"
   showgrid="false"
   inkscape:zoom="1.8741153"
   inkscape:cx="37.795223"
   inkscape:cy="17.602588"
   inkscape:window-x="0"
   inkscape:window-y="0"
   inkscape:window-maximized="0"
   inkscape:current-layer="svg49" />
	<style
   type="text/css"
   id="style2">
	<![CDATA[
		.st1 {fill:url(#grad0-6);stroke:none;stroke-linecap:butt;stroke-width:12.24}
		.st2 {fill:url(#grad0-10);stroke:none;stroke-linecap:butt;stroke-width:12.24}
		.st3 {fill:none;fill-rule:evenodd;font-size:12px;overflow:visible;stroke-linecap:square;stroke-miterlimit:3}
	]]>
	</style>

	<defs
   id="Patterns_And_Gradients">
		<linearGradient
   id="grad0-6"
   x1="0"
   y1="71.510134"
   x2="36.320252"
   y2="71.510134"
   gradientTransform="scale(1.1417872,0.87581992)"
   gradientUnits="userSpaceOnUse">
			<stop
   offset="0"
   stop-color="#198ab3"
   stop-opacity="1"
   id="stop4" />
			<stop
   offset="0.13"
   stop-color="#21a0c7"
   stop-opacity="1"
   id="stop6" />
			<stop
   offset="0.31"
   stop-color="#28b7db"
   stop-opacity="1"
   id="stop8" />
			<stop
   offset="0.5"
   stop-color="#2ec7ea"
   stop-opacity="1"
   id="stop10" />
			<stop
   offset="0.72"
   stop-color="#31d1f2"
   stop-opacity="1"
   id="stop12" />
			<stop
   offset="1"
   stop-color="#32d4f5"
   stop-opacity="1"
   id="stop14" />
		</linearGradient>
		<linearGradient
   id="grad0-10"
   x1="0"
   y1="75.326931"
   x2="38.677482"
   y2="75.326931"
   gradientTransform="scale(1.2071624,0.82838899)"
   gradientUnits="userSpaceOnUse">
			<stop
   offset="0"
   stop-color="#0078d4"
   stop-opacity="1"
   id="stop17" />
			<stop
   offset="0.16"
   stop-color="#1380da"
   stop-opacity="1"
   id="stop19" />
			<stop
   offset="0.53"
   stop-color="#3c91e5"
   stop-opacity="1"
   id="stop21" />
			<stop
   offset="0.82"
   stop-color="#559cec"
   stop-opacity="1"
   id="stop23" />
			<stop
   offset="1"
   stop-color="#5ea0ef"
   stop-opacity="1"
   id="stop25" />
		</linearGradient>
	</defs>
	<g
   id="g47"
   transform="translate(-12.24,-12.2439)">
		<title
   id="title29">Page-1</title>
		<g
   id="group2077-1"
   transform="translate(12.24,-34.0157)">
			<title
   id="title31">Recovery Services</title>
			<g
   id="group2078-2">
				<title
   id="title33">g8</title>
				<g
   id="shape2079-3"
   transform="translate(15.2241,-16.3704)">
					<title
   id="title35">path4</title>
					<path
   d="m 17.04,78.3 c 6.82,0 12.39,5.19 13.18,11.76 1.59,1.27 2.84,2.77 3.75,4.38 4.43,-1.15 7.5,-5.07 7.5,-9.79 0,-3.81 -2.05,-6.81 -5.57,-8.54 v -1.26 c 0,-6.69 -5.45,-12.22 -12.04,-12.22 -3.98,0 -7.61,1.96 -9.89,5.07 C 12.5,66.78 10.91,66.32 9.09,66.32 4.32,66.32 0.45,70 0,74.62 0.68,74.5 1.48,74.5 2.27,74.5 c 3.52,0 7.5,0.58 10.8,4.15 z"
   class="st1"
   id="path37"
   inkscape:connector-curvature="0"
   style="fill:url(#grad0-6);stroke:none;stroke-width:12.23999977;stroke-linecap:butt" />
				</g>
				<g
   id="shape2080-7">
					<title
   id="title40">path6</title>
					<path
   d="m 41.47,76 v -0.69 c 0,-5.08 -4.09,-9.23 -9.09,-9.23 -2.54,0.02 -2.57,0.19 -4.53,1.21 -2.61,1.96 -4.22,5.02 -4.33,8.25 h 3.97 l -6.02,7.26 -6.13,-7.26 h 4.09 C 19.54,71.16 21.25,67.01 24.2,64.36 22.27,63.09 20,62.4 17.61,62.4 10.91,62.4 5.45,67.81 5.45,74.5 v 1.27 C 2.05,77.5 0,80.5 0,84.3 0,90.06 4.54,94.44 10.45,94.44 h 25.79 c 5.91,0 10.45,-4.49 10.45,-10.14 0,-3.69 -1.81,-6.57 -5.22,-8.3 z"
   class="st2"
   id="path42"
   inkscape:connector-curvature="0"
   style="fill:url(#grad0-10);stroke:none;stroke-width:12.23999977;stroke-linecap:butt" />
				</g>
			</g>
		</g>
	</g>
</svg>

<?xml version="1.0" encoding="UTF-8" standalone="no"?>
<!DOCTYPE svg PUBLIC "-//W3C//DTD SVG 1.1//EN" "http://www.w3.org/Graphics/SVG/1.1/DTD/svg11.dtd">
<!-- Generated by Microsoft Visio, SVG Export Recovery Services.svg Page-1 -->
<svg xmlns="http://www.w3.org/2000/svg" xmlns:xlink="http://www.w3.org/1999/xlink" xmlns:ev="http://www.w3.org/2001/xml-events"
		width="1.1274in" height="1.31173in" viewBox="0 0 81.1729 94.4447" xml:space="preserve" color-interpolation-filters="sRGB"
		class="st3">
	<style type="text/css">
	<![CDATA[
		.st1 {fill:url(#grad0-6);stroke:none;stroke-linecap:butt;stroke-width:12.24}
		.st2 {fill:url(#grad0-10);stroke:none;stroke-linecap:butt;stroke-width:12.24}
		.st3 {fill:none;fill-rule:evenodd;font-size:12px;overflow:visible;stroke-linecap:square;stroke-miterlimit:3}
	]]>
	</style>

	<defs id="Patterns_And_Gradients">
		<linearGradient id="grad0-6" x1="0" y1="0" x2="1" y2="0" gradientTransform="rotate(-90.226046552341 0.5 0.5)">
			<stop offset="0" stop-color="#198ab3" stop-opacity="1"/>
			<stop offset="0.13" stop-color="#21a0c7" stop-opacity="1"/>
			<stop offset="0.31" stop-color="#28b7db" stop-opacity="1"/>
			<stop offset="0.5" stop-color="#2ec7ea" stop-opacity="1"/>
			<stop offset="0.72" stop-color="#31d1f2" stop-opacity="1"/>
			<stop offset="1" stop-color="#32d4f5" stop-opacity="1"/>
		</linearGradient>
		<linearGradient id="grad0-10" x1="0" y1="0" x2="1" y2="0" gradientTransform="rotate(-89.875606299213 0.5 0.5)">
			<stop offset="0" stop-color="#0078d4" stop-opacity="1"/>
			<stop offset="0.16" stop-color="#1380da" stop-opacity="1"/>
			<stop offset="0.53" stop-color="#3c91e5" stop-opacity="1"/>
			<stop offset="0.82" stop-color="#559cec" stop-opacity="1"/>
			<stop offset="1" stop-color="#5ea0ef" stop-opacity="1"/>
		</linearGradient>
	</defs>
	<g>
		<title>Page-1</title>
		<g id="group2062-1" transform="translate(12.24,-34.0157)">
			<title>Recovery Services</title>
			<g id="group2063-2">
				<title>g8</title>
				<g id="shape2064-3" transform="translate(15.2241,-16.3704)">
					<title>path4</title>
					<path d="M17.04 78.3 C23.86 78.3 29.43 83.49 30.22 90.06 C31.81 91.33 33.06 92.83 33.97 94.44 C38.4 93.29 41.47
								 89.37 41.47 84.65 C41.47 80.84 39.42 77.84 35.9 76.11 L35.9 74.85 C35.9 68.16 30.45 62.63 23.86
								 62.63 C19.88 62.63 16.25 64.59 13.97 67.7 C12.5 66.78 10.91 66.32 9.09 66.32 C4.32 66.32 0.45 70
								 0 74.62 C0.68 74.5 1.48 74.5 2.27 74.5 C5.79 74.5 9.77 75.08 13.07 78.65 L17.04 78.3 Z"
							class="st1"/>
				</g>
				<g id="shape2065-7">
					<title>path6</title>
					<path d="M41.47 76 L41.47 75.31 C41.47 70.23 37.38 66.08 32.38 66.08 C29.84 66.1 29.81 66.27 27.85 67.29 C25.24
								 69.25 23.63 72.31 23.52 75.54 L27.49 75.54 L21.47 82.8 L15.34 75.54 L19.43 75.54 C19.54 71.16 21.25
								 67.01 24.2 64.36 C22.27 63.09 20 62.4 17.61 62.4 C10.91 62.4 5.45 67.81 5.45 74.5 L5.45 75.77 C2.05
								 77.5 0 80.5 0 84.3 C0 90.06 4.54 94.44 10.45 94.44 L36.24 94.44 C42.15 94.44 46.69 89.95 46.69 84.3
								 C46.69 80.61 44.88 77.73 41.47 76 Z" class="st2"/>
				</g>
			</g>
		</g>
	</g>
</svg>
